X:1
T:Will the Circle Be Unbroken?
T:Charles Hutchinson Gabriel
T:Will the Circle Be Unbroken?
T:Public Domain
T:Public Domain
C:Charles Hutchinson Gabriel
Z:Public Domain
%%score 1 ( 2 3 )
L:1/8
M:4/4
K:Ab
V:1 treble 
V:2 bass 
V:3 bass 
V:1
 [A,C]>[B,D] | [CE]2 [CE]4 [CA]>[DB] | [Ec]2 [Ec]4 [Ec]>[EB] | [FA]3 [GB] [FA]2 [DF]2 | %4
w: 1.~There are|loved ones in the|glor- y, Whose dear|forms you of- ten|
w: 2.~In the|joy- ous days of|child- hood, Oft they|told of wond- rous|
w: 3.~You re-|mem- ber song of|heav- en Which you|sang with child- ish|
w: 4.~You can|pic- ture hap- py|ga- therings Round the|fire- side long a-|
w: 5.~One by|one their seats were|emp- tied, One by|one they went a-|
 [CE]6 [A,C]>[B,D] | [CE]2 [CE]4 [EA]>[EB] | [Ec]2 [Ec]4 [EA]>[EA] | [EB]3 [EB] [=DB]2 [Dc]2 | %8
w: miss; When you|close your earth- ly|stor- y, Will you|join them in their|
w: love, Point- ed|to the dy- ing|Sav- ior Now they|dwell with Him a-|
w: voice, Do you|love the hymns they|taught you, Or are|songs of earth your|
w: go, And you|think of tear- ful|part- ings, When they|left you here be-|
w: way; Here the|cir- cle has been|brok- en— Will it|be com- plete one|
 [EB]6 ||"^Refrain" [CA]>[CB] | [Ec]2 [Ee]4 [Ec]>[DB] | [CA]2 [Ec]4 [EA]>[EG] | %12
w: bliss?||||
w: bove.||||
w: choice?||||
w: low:||||
w: day?||||
 ([DF]3 [GB]) [FA]2 [DF]2 | [CE]6 [CE]>[CE] | [DF]2 [FA]4 [EA]>[EB] | [Ec]2 [Ec]4 [Ec]>[Ed] | %16
w: ||||
w: ||||
w: ||||
w: ||||
w: ||||
 [Ee]6 [Ec]>[EB] | [CA]6 |] %18
w: ||
w: ||
w: ||
w: ||
w: ||
V:2
 [A,,E,]>[A,,E,] | [A,,A,]2 [A,,A,]4 [A,,A,]>[A,,A,] | A,2 A,4 A,>[C,A,] | %3
w: ~ ~|~ ~ ~ ~|~ ~ ~ ~|
 [D,D]3 [D,D] [D,D]2 [D,A,]2 | [A,,A,]6 [A,,E,]>[A,,E,] | [A,,A,]2 [A,,A,]4 [C,A,]>[E,G,] | %6
w: ~ ~ ~ ~|~ ~ ~|~ ~ ~ ~|
 A,2 A,4 [C,A,]>[C,A,] | [E,G,]3 [E,G,] [B,,A,]2 [B,,A,]2 | [E,G,]6 || A,>A, | %10
w: ~ ~ ~ ~|~ ~ Will the|cir-|cle be|
 A,2 [A,C]4 [A,,A,]>[A,,A,] | [A,,A,]2 [A,,A,]4 [C,A,]>[C,A,] | [D,A,]4 [D,D]2 [D,A,]2 | %13
w: en By and by,|and by? In a|bet- ter home|
 [A,,A,]6 [A,,A,]>[A,,A,] | [D,A,]2 [D,D]4 [C,A,]>[E,G,] | A,2 A,4 [E,A,]>[E,B,] | %16
w: a- wait- ing|In the sky, in|the sky? * *|
 [E,C]6 [E,A,]>E, | [A,,E,]6 |] %18
w: ||
V:3
 x2 | x8 | A,2 A,4 A,3/2 x/ | x8 | x8 | x8 | x8 | x8 | x6 || A,>A, | A,2 x6 | x8 | x8 | x8 | x8 | %15
w: ||~ ~ ~|||||||un- brok-|by|||||
 A,2 A,4 x2 | x15/2 E,/ | x6 |] %18
w: |||

